picto/emergency-window-left-framed.svg

<svg class="color-immutable" width="30" height="30" viewBox="0 0 30 30" fill="none" xmlns="http://www.w3.org/2000/svg"><path d="M30 0H0V30H30V0Z" fill="#237F52"/><path d="M25.5 3C26.325 3 27 3.675 27 4.5V25.5C27 26.325 26.325 27 25.5 27H4.5C3.675 27 3 26.325 3 25.5V4.5C3 3.675 3.675 3 4.5 3H25.5ZM25.5 2.625H4.5C3.46613 2.625 2.625 3.46613 2.625 4.5V25.5C2.625 26.5339 3.46613 27.375 4.5 27.375H25.5C26.5339 27.375 27.375 26.5339 27.375 25.5V4.5C27.375 3.46613 26.5339 2.625 25.5 2.625Z" fill="white"/><path d="M9.45 10.35C9.45 11.0954 8.84528 11.7001 8.10083 11.7001C7.35473 11.7001 6.75 11.0953 6.75 10.35C6.75 9.60382 7.35473 9 8.10083 9C8.8452 9 9.45 9.60382 9.45 10.35ZM15.5702 18L14.0536 16.4833L11.4458 19.0898V22.8991C11.4458 23.2815 11.1351 23.5924 10.7527 23.5924C10.3703 23.5924 10.0609 23.2815 10.0609 22.8991V18.706C10.0609 18.5211 10.1324 18.3463 10.2631 18.2147L12.3382 16.1396L10.0609 13.8609V15.8002C10.0609 16.0876 9.82792 16.3201 9.54105 16.3201H7.08262C6.79492 16.3201 6.5625 16.0876 6.5625 15.8002C6.5625 15.5125 6.79492 15.2809 7.08262 15.2809H9.0558V12.8566C9.0558 11.9014 9.83093 11.125 10.7885 11.125H13.2086C13.3922 11.125 13.5692 11.1988 13.6983 11.3286L15.7416 13.3712C15.8327 13.4614 15.8838 13.5841 15.8838 13.714C15.8838 13.9806 15.6664 14.1981 15.3988 14.1981C15.2698 14.1981 15.1472 14.1476 15.0553 14.0566L13.1288 12.1284H11.7569L17.6278 18H15.5702Z" fill="white"/><path d="M10.5 17.4475L11.625 16.3225V15.9564L10.5 14.8307V17.4475Z" fill="white"/><path d="M10.5 6V10.7702C10.5944 10.7572 10.6907 10.75 10.7885 10.75H11.625V7.125H22.875V18.375H12.6915L11.8208 19.2452V19.5H24V6H10.5Z" fill="white"/></svg>

<svg class="color-immutable" width="30" height="30" viewBox="0 0 30 30" fill="none" xmlns="http://www.w3.org/2000/svg"><g clip-path="url(#a)"><path d="M30 0H0v30h30V0Z" fill="#237F52"/><path d="M25.5 3c.825 0 1.5.675 1.5 1.5v21c0 .825-.675 1.5-1.5 1.5h-21c-.825 0-1.5-.675-1.5-1.5v-21C3 3.675 3.675 3 4.5 3h21Zm0-.375h-21A1.877 1.877 0 0 0 2.625 4.5v21c0 1.034.841 1.875 1.875 1.875h21a1.877 1.877 0 0 0 1.875-1.875v-21A1.877 1.877 0 0 0 25.5 2.625Z" fill="#fff"/><path d="M9.45 10.35a1.35 1.35 0 1 1-2.7 0 1.35 1.35 0 0 1 2.7 0ZM15.57 18l-1.516-1.517-2.608 2.607v3.81a.693.693 0 0 1-1.385 0v-4.194c0-.185.071-.36.202-.491l2.075-2.075-2.277-2.28v1.94a.52.52 0 0 1-.52.52H7.083a.52.52 0 1 1 0-1.04h1.973v-2.423c0-.956.775-1.732 1.733-1.732h2.42c.183 0 .36.074.49.204l2.043 2.042a.485.485 0 0 1-.686.685l-1.927-1.928h-1.372L17.627 18H15.57Z" fill="#fff"/><path d="m10.5 17.448 1.125-1.125v-.367L10.5 14.831v2.617Z" fill="#fff"/><path d="M10.5 6v4.77c.094-.013.19-.02.289-.02h.836V7.125h11.25v11.25H12.691l-.87.87v.255H24V6H10.5Z" fill="#fff"/></g><defs><clipPath id="a"><path fill="#fff" d="M0 0h30v30H0z"/></clipPath></defs></svg>
